shader wrapScalar(
    float Value = 0.0,
    float LowerBound = -1.0,
    float UpperBound = 1.0,

    output float Wrapped = Value) {

    float range = UpperBound - LowerBound;
    float b = (Value - LowerBound) / range;
    Wrapped = select(
        Value,
        Value - range * floor(b),
        range != 0.0);
}