struct Vec2 {
  float x;
  float y;
};

float length(Vec2 a) {
  return hypot(a.x, a.y);
}

shader torus(
  vector Point = P,
  vector Bounds = 1.0,

  output float Fac = 0.0) {

    /**
     * Cf. Inigo Quilez
     * Raymarching - Primitives
     * https://www.shadertoy.com/view/Xds3zN
     */

    Vec2 pxy = Vec2(Point[0], Point[1]);
    Vec2 q = Vec2(length(pxy) - Bounds[0], Point[2]);
    Fac = length(q) - Bounds[1];
}