shader fractPoint(
    point A = 0.0,
    
    output point Fract = 0.0,
    output point Trunc = 0.0,
    output point Floor = 1.0) {
    
    Trunc = trunc(A);
    Fract = A - Trunc;
    Floor = 1.0 - Fract;
}