shader mapPoint(
  point Point = P,
  point LbOrigin = -1.0,
  point UbOrigin = 1.0,
  point LbDest = 0.0,
  point UbDest = 1.0,

  output point Remapped = P) {
  
  Remapped = LbDest + (UbDest - LbDest) * ((Point - LbOrigin) / (UbOrigin - LbOrigin));
}