shader pingPongPoint(
    point A = 0.0,
    point B = 1.0,
    point T = 0.5,
    point Pause = 1.0,

    output point Point = 0.5) {

    point x = 0.5 + 0.5 * Pause * cos(T * M_2PI);
    Point = mix(A, B, clamp(x, 0.0, 1.0));
}