float wrap(float v, float lb, float ub) {
    float range = ub - lb;
    float b = (v - lb) / range;
    return select(v, v - range * floor(b),
        range != 0.0);
}

shader wrapPoint(
    point Point = P,
    point LowerBound = -1.0,
    point UpperBound = 1.0,

    output point Wrapped = P) {

    Wrapped = point(
        wrap(Point[0], LowerBound[0], UpperBound[0]),
        wrap(Point[1], LowerBound[1], UpperBound[1]),
        wrap(Point[2], LowerBound[2], UpperBound[2]));
}